X:1
T: The Cuckoo's Nest
C:
R:Reel
Q: 232
K:D
M:4/4
L:1/8
|:Ad dc de fd|ed cB A2 AB|cB AB cd ed|cA GF G2 AG|
FD FA df ed|cA GF G2 AG|F2 FD CD EG|1F2 D2 D4:|2F2 D2 D2 B2|
|:AF DF AF DF|AG FE D2 EF|GE CE GE CE|GF ED C2 DE|
FE FD df ed|cA GF G2 AG|F2 FD CD EG|1F2 D2 D2 B2:|2F2 D2 D4||
